X: 17757
T: Hommage à Gilles Laprise
R: reel
M: 4/4
K: Dmajor
|:a3 a gfeg|fefg afdf|edef gecA|defg agfg|
a2 aa gfeg|fefg afdf|edef gecA|1 dfec defg:|2 dfec d3 A||
|:Afed B3 B|Bgfe a2 aa|Afed cAce|ageg fafd|
Afed B2 BB|Bgfe a3 a|Afed cAce|1 agec d2 dd|2 agec d2 d2||

